Obsidian-SemiLight/actions/16s/view-calendar-whatsnext.svg

<svg viewBox="0 0 16 16" xmlns="http://www.w3.org/2000/svg"><path d="m3 2v1 1h-1v1h1v6h-1v1h1v1 1h2 2v-1h-2v-10h8v4h1v-5h-1zm8.171875 6.671875-.707031.7070312.949218.9492188.671876.671875h-4.085938v1h4.085938l-.671876.671875-.949218.949219.707031.707031.949219-.949219 1.878906-1.878906-1.878906-1.8789062z" fill="#4d4d4d"/></svg>

<svg xmlns="http://www.w3.org/2000/svg" viewBox="0 0 16 16">
  <defs id="defs3051">
    <style type="text/css" id="current-color-scheme">
      .ColorScheme-Text {
        color:#4d4d4d;
      }
      </style>
  </defs>
 <path style="fill:currentColor;fill-opacity:1;stroke:none" 
       d="M 3 2 L 3 3 L 3 4 L 2 4 L 2 5 L 3 5 L 3 11 L 2 11 L 2 12 L 3 12 L 3 13 L 3 14 L 5 14 L 7 14 L 7 13 L 5 13 L 5 3 L 13 3 L 13 7 L 14 7 L 14 2 L 13 2 L 3 2 z M 11.171875 8.671875 L 10.464844 9.3789062 L 11.414062 10.328125 L 12.085938 11 L 8 11 L 8 12 L 12.085938 12 L 11.414062 12.671875 L 10.464844 13.621094 L 11.171875 14.328125 L 12.121094 13.378906 L 14 11.5 L 12.121094 9.6210938 L 11.171875 8.671875 z "
     class="ColorScheme-Text"
     />
</svg>
